FINK
CUT[ICH BIN DER FUERST VON THOREN]
REG[Europa, Mitteleuropa, Deutschland]
KEY[F0125  16  G 3/4]
MEL[-5_  -5_.11__.2_  1_.-7-7__0_
    -5_  -7_2_5__.-7_  2_.11__0_
    -5_  1_3_5__3_1_  -7_.24__0_
    3_  4_2_5__.-7-7  2_.11__0_ //] >>
FCT[Spiel -, Scherz - Lied]
